src/assets/duotone/Star.svg

<?xml version="1.0" encoding="UTF-8"?>
<svg width="24" height="24" viewBox="0 0 24 24" xmlns="http://www.w3.org/2000/svg">
 <path d="m15.39 5.21 1.4099 2.82c0.19 0.39 0.7 0.76 1.13 0.84l2.5501 0.42c1.63 0.27 2.01 1.45 0.84 2.63l-1.9901 1.99c-0.33 0.33-0.5199 0.98-0.4099 1.45l0.5699 2.46c0.45 1.94-0.5899 2.7-2.2999 1.68l-2.3901-1.42c-0.43-0.26-1.1499-0.26-1.5799 0l-2.3901 1.42c-1.71 1.01-2.75 0.26-2.3-1.68l0.57001-2.46c0.11-0.46-0.08001-1.11-0.41001-1.45l-1.99-1.99c-1.17-1.17-0.79-2.35 0.84-2.63l2.5499-0.42c0.43-0.07 0.9401-0.45 1.1301-0.84l1.41-2.82c0.75-1.53 1.99-1.53 2.76 0z"/>
 <path d="m8 5.75h-6c-0.41 0-0.75-0.34-0.75-0.75s0.34-0.75 0.75-0.75h6c0.41 0 0.75 0.34 0.75 0.75s-0.34 0.75-0.75 0.75z" opacity=".4"/>
 <path d="m5 19.75h-3c-0.41 0-0.75-0.34-0.75-0.75s0.34-0.75 0.75-0.75h3c0.41 0 0.75 0.34 0.75 0.75s-0.34 0.75-0.75 0.75z" opacity=".4"/>
 <path d="m3 12.75h-1c-0.41 0-0.75-0.34-0.75-0.75s0.34-0.75 0.75-0.75h1c0.41 0 0.75 0.34 0.75 0.75s-0.34 0.75-0.75 0.75z" opacity=".4"/>
</svg>

<svg width="24" height="24" viewBox="0 0 24 24"  xmlns="http://www.w3.org/2000/svg">
<path d="M15.39 5.21L16.7999 8.03C16.9899 8.42 17.4999 8.79 17.9299 8.87L20.48 9.29C22.11 9.56 22.49 10.74 21.32 11.92L19.3299 13.91C18.9999 14.24 18.81 14.89 18.92 15.36L19.4899 17.82C19.9399 19.76 18.9 20.52 17.19 19.5L14.7999 18.08C14.3699 17.82 13.65 17.82 13.22 18.08L10.8299 19.5C9.11994 20.51 8.07995 19.76 8.52995 17.82L9.09996 15.36C9.20996 14.9 9.01995 14.25 8.68995 13.91L6.69996 11.92C5.52996 10.75 5.90996 9.57 7.53996 9.29L10.0899 8.87C10.5199 8.8 11.03 8.42 11.22 8.03L12.63 5.21C13.38 3.68 14.62 3.68 15.39 5.21Z" />
<path opacity="0.4" d="M8 5.75H2C1.59 5.75 1.25 5.41 1.25 5C1.25 4.59 1.59 4.25 2 4.25H8C8.41 4.25 8.75 4.59 8.75 5C8.75 5.41 8.41 5.75 8 5.75Z" />
<path opacity="0.4" d="M5 19.75H2C1.59 19.75 1.25 19.41 1.25 19C1.25 18.59 1.59 18.25 2 18.25H5C5.41 18.25 5.75 18.59 5.75 19C5.75 19.41 5.41 19.75 5 19.75Z" />
<path opacity="0.4" d="M3 12.75H2C1.59 12.75 1.25 12.41 1.25 12C1.25 11.59 1.59 11.25 2 11.25H3C3.41 11.25 3.75 11.59 3.75 12C3.75 12.41 3.41 12.75 3 12.75Z" />
</svg>
